img/quote.svg

<svg width="851" height="683" viewBox="0 0 851 683" fill="none" xmlns="http://www.w3.org/2000/svg">
<path d="M0.700195 0C22.1393 0 43.3008 0 64.6705 0C64.6705 21.2917 64.6705 42.4448 64.6705 63.9446C43.5089 63.9446 22.278 63.9446 0.700195 63.9446C0.700195 42.8609 0.700195 21.6385 0.700195 0ZM9.16481 54.5817C24.5676 54.5817 39.8317 54.5817 55.0958 54.5817C55.0958 39.3932 55.0958 24.482 55.0958 9.57087C39.5542 9.57087 24.3595 9.57087 9.16481 9.57087C9.16481 24.7594 9.16481 39.6012 9.16481 54.5817Z" fill="#DB0007"/>
<path d="M46.1449 18.5176C46.1449 27.6723 46.1449 36.4803 46.1449 45.4963C37.1252 45.4963 28.3137 45.4963 19.1553 45.4963C19.1553 36.6884 19.1553 27.7417 19.1553 18.5176C27.9668 18.5176 36.9171 18.5176 46.1449 18.5176Z" fill="#DB0007"/>
<path d="M0.700195 619.055C22.1393 619.055 43.3008 619.055 64.6705 619.055C64.6705 640.347 64.6705 661.5 64.6705 683C43.5089 683 22.278 683 0.700195 683C0.700195 661.916 0.700195 640.625 0.700195 619.055ZM9.16481 673.637C24.5676 673.637 39.8317 673.637 55.0958 673.637C55.0958 658.449 55.0958 643.537 55.0958 628.626C39.5542 628.626 24.3595 628.626 9.16481 628.626C9.16481 643.815 9.16481 658.657 9.16481 673.637Z" fill="#DB0007"/>
<path d="M46.0756 637.573C46.0756 646.728 46.0756 655.536 46.0756 664.552C37.0559 664.552 28.2444 664.552 19.0859 664.552C19.0859 655.744 19.0859 646.797 19.0859 637.573C27.8975 637.573 36.8478 637.573 46.0756 637.573Z" fill="#DB0007"/>
<path d="M786.66 584.24H817.535V539.298H850.7V63.9446H792.489V95.5007H760.503V63.9446H0.700195V619.055H786.66V584.24Z" fill="#DB0007"/>
<path d="M850.699 603.243H850.63V619.055H850.699V603.243Z" fill="#DB0007"/>
</svg>

<svg width="851" height="683" fill="none" xmlns="http://www.w3.org/2000/svg"><path d="M.7 0h63.97v63.945H.7V0zm8.465 54.582h45.93V9.57H9.166v45.01z" fill="#DB0007"/><path d="M46.145 18.518v26.978h-26.99V18.518h26.99zM.7 619.055h63.97V683H.7v-63.945zm8.465 54.582h45.93v-45.011H9.166v45.011z" fill="#DB0007"/><path d="M46.076 637.573v26.979h-26.99v-26.979h26.99zM786.66 584.24h30.875v-44.942H850.7V63.945h-58.211V95.5h-31.986V63.945H.7v555.11h785.96V584.24zm64.039 19.003h-.069v15.812h.069v-15.812z" fill="#DB0007"/></svg>
